T: Danse Breton
M: 4/4
L: 1/8
K: Amin
A2 eA e2 de | f2 e2 dcBc | d2 B2 e2 dc |[1 BAGA c2 B2 |[2 BABc A4 |||: A2 A2 B2 cB | A2 A2 B3 c | d2 B2 e2 dc | BAGA c2 B2 :|[2 BABc A4 |]
